X: 5
T: The Humours Of Kinvara
R: reel
M: 4/4
L: 1/8
K: Edor
cA|:BE (3EEE BEdE|BE (3EEE BEdE|cA (3AAA AcAe|1ceef e2cA:|2ceef ~e2 cA||
|:Affe dcBA|~f3e d3e|~f3e fgaf|1ecAc ~e2cA:|2ecAc ~e2||


Tune 294	Setting 294

